X:861
T:The Rocky Road to Dublin
C:Traditional Irish
S:Colin Hume's website,  colinhume.com  - chords can also be printed below the stave.
Q:3/8=120
M:9/8
R:Slip-jig
K:G mixolydian
P:A
"Am"efe d2B A3 | "Am"E2A A2A "G"Bcd | "Am"efe d2B A2c | "G"B2G G2A Bcd |
"Am"efe d2B A3 | "Am"E2A A2A "G"Bcd | "Em"e^fg fga gfe | "G"d2B G2A Bcd ||
P:B
"Am"e2a a2^f "G"g3 | "Am"e2a a2A "G"Bcd | "Am"e2a a2^f "C"g2e | "G"d2 B G2 A Bcd |
"Am"e2a a2^f "G"g3 | "Am"e2a a2A "G"Bcd | "Em"e^fg fga gfe | "G"d2B G2A Bcd ||
P:C
|: "Am"ecA ecA A3 | "Am"ecA ecA "G"Bcd | "Am"ecA ecA A2 c | "G"d2B G2A Bcd :|

